X: 16092
T: I_Wish_my_Love_were_in_a_Myre
%R: air, strathspey
B: James Oswald "The Caledonian Pocket Companion" v.1 b.6 p.9 #2
S: https://ia800501.us.archive.org/18/items/caledonianpocket01rugg/caledonianpocket01rugg_bw.pdf
Z: 2020 John Chambers <jc:trillian.mit.edu>
M: C
L: 1/8
K: Dmix
%%slurgraces 1
%%graceslurs 1
"_Slow"A>B |\
d2Tf>e d3F | (TED)(EF) B2A>B |\
d2A>B d>ef>e | d2B>c B2A>B |\
d2{de}f>e {e}d3F | (TED)(EF) B3d |
A>BAF (GF)(ED) | d2T^c>B B2 :: Tf>e |\
d2(A>B) A2Tf>e | d>edB A3f |\
gfgb a(g/f/) Ted |
{ef}g2f>e e2f>g |\
(a/g/f/e/) (d/e/f/g/) {fg}a3F | (G/F/E/D/) E2(FA) {A}B3d |\
A(d/^c/) (B/A/G/F/) EF/G/ TED | d2(B>c) B2 :|


